images/trophy.svg

<svg height="65" viewBox="0 0 72 65" width="72" xmlns="http://www.w3.org/2000/svg" xmlns:xlink="http://www.w3.org/1999/xlink"><mask id="a" fill="#fff"><path d="m.27614071.17015072h44.84203979v64.51884448h-44.84203979z" fill="none"/></mask><g fill="none" fill-rule="evenodd" transform="translate(1.5)"><path d="m45.0071149.17015072h-44.62000003s-2.53124325 40.73944978 16.58424323 47.48887558c-.0730405 1.6700957-.639027 7.017512-4.5648784 17.03h21.1932568c-4.126946-10.5268899-4.5406351-15.8948325-4.5726487-17.2564115 18.4584325-7.3857416 15.9800271-47.26246408 15.9800271-47.26246408" fill="#5cd8ff" mask="url(#a)" transform="translate(11.810811 .140885)"/><path d="m58.9022541 19.9312081-3.8018379-4.0682536h13.6881081s.8367027 20.6600479-18.1939324 20.1537321" stroke="#162842" stroke-linecap="round" stroke-linejoin="round" stroke-width="2.1735"/><path d="m45.8714176 20.5992464c-.1097162-.3377512-.4015676-.584067-.7527838-.6350718l-6.7539189-.9821531-3.0204595-6.1243062c-.1569595-.3181579-.4811351-.519689-.8363919-.519689-.3546351 0-.6788108.2015311-.8357703.519689l-3.0207702 6.1243062-6.7539189.9821531c-.3515271.0510048-.6430676.2973206-.7527838.6350718s-.0183379.7084689.2359054.9563397l4.8871892 4.7667704-1.1537298 6.7310765c-.0599865.3498804.083919.7038038.3711081.9124881.2871892.2083732.6676217.2357416.9818514.070909l6.0409189-3.1778468 6.0412297 3.1778468c.136446.0718421.2853244.1072967.4335811.1072967.1936352 0 .3860271-.0603349.5482703-.1782057.2871892-.2086843.4310946-.5626077.3711081-.9124881l-1.1537297-6.7310765 4.8871892-4.7667704c.2542432-.2478708.3456216-.6185885.2359054-.9563397" fill="#fff"/><path d="m9.76635946 19.9312081 4.08281084-4.0682536h-13.68841895s-.8367027 20.6600479 18.19362165 20.1537321" stroke="#162842" stroke-linecap="round" stroke-linejoin="round" stroke-width="2.1735"/></g></svg>

<?xml version="1.0" encoding="UTF-8"?>
<svg width="72px" height="65px" viewBox="0 0 72 65" version="1.1" xmlns="http://www.w3.org/2000/svg" xmlns:xlink="http://www.w3.org/1999/xlink">
    <!-- Generator: sketchtool 50.2 (55047) - http://www.bohemiancoding.com/sketch -->
    <title>F03BA3C6-023C-4BB7-9D77-E1D758391D74</title>
    <desc>Created with sketchtool.</desc>
    <defs>
        <polygon id="path-1" points="0.276140707 0.170150718 45.1181805 0.170150718 45.1181805 64.6889952 0.276140707 64.6889952"></polygon>
    </defs>
    <g id="Future-Project-Desktop" stroke="none" stroke-width="1" fill="none" fill-rule="evenodd">
        <g id="About-us" transform="translate(-1040.000000, -1969.000000)">
            <g id="fabout-us/facts" transform="translate(-4.000000, 1817.000000)">
                <g id="trophy" transform="translate(1045.500000, 152.000000)">
                    <g id="Group-3" transform="translate(11.810811, 0.140885)">
                        <mask id="mask-2" fill="white">
                            <use xlink:href="#path-1"></use>
                        </mask>
                        <g id="Clip-2"></g>
                        <path d="M45.0071149,0.170150718 L0.387114865,0.170150718 C0.387114865,0.170150718 -2.14412838,40.9096005 16.9713581,47.6590263 C16.8983176,49.329122 16.3323311,54.6765383 12.4064797,64.6890263 L33.5997365,64.6890263 C29.4727905,54.1621364 29.0591014,48.7941938 29.0270878,47.4326148 C47.4855203,40.0468732 45.0071149,0.170150718 45.0071149,0.170150718" id="Fill-1" fill="#5CD8FF" mask="url(#mask-2)"></path>
                    </g>
                    <path d="M58.9022541,19.9312081 L55.1004162,15.8629545 L68.7885243,15.8629545 C68.7885243,15.8629545 69.625227,36.5230024 50.5945919,36.0166866" id="Stroke-4" stroke="#162842" stroke-width="2.1735" stroke-linecap="round" stroke-linejoin="round"></path>
                    <path d="M45.8714176,20.5992464 C45.7617014,20.2614952 45.46985,20.0151794 45.1186338,19.9641746 L38.3647149,18.9820215 L35.3442554,12.8577153 C35.1872959,12.5395574 34.8631203,12.3380263 34.5078635,12.3380263 C34.1532284,12.3380263 33.8290527,12.5395574 33.6720932,12.8577153 L30.651323,18.9820215 L23.8974041,19.9641746 C23.545877,20.0151794 23.2543365,20.2614952 23.1446203,20.5992464 C23.0349041,20.9369976 23.1262824,21.3077153 23.3805257,21.5555861 L28.2677149,26.3223565 L27.1139851,33.053433 C27.0539986,33.4033134 27.1979041,33.7572368 27.4850932,33.9659211 C27.7722824,34.1742943 28.1527149,34.2016627 28.4669446,34.0368301 L34.5078635,30.8589833 L40.5490932,34.0368301 C40.6855392,34.1086722 40.8344176,34.1441268 40.9826743,34.1441268 C41.1763095,34.1441268 41.3687014,34.0837919 41.5309446,33.9659211 C41.8181338,33.7572368 41.9620392,33.4033134 41.9020527,33.053433 L40.748323,26.3223565 L45.6355122,21.5555861 C45.8897554,21.3077153 45.9811338,20.9369976 45.8714176,20.5992464" id="Fill-6" fill="#FFFFFF"></path>
                    <path d="M9.76635946,19.9312081 L13.8491703,15.8629545 L0.160751351,15.8629545 C0.160751351,15.8629545 -0.675951351,36.5230024 18.354373,36.0166866" id="Stroke-8" stroke="#162842" stroke-width="2.1735" stroke-linecap="round" stroke-linejoin="round"></path>
                </g>
            </g>
        </g>
    </g>
</svg>
